mail.svg

<svg width="800" height="800" viewBox="0 0 19.2 19.2" data-name="mail" xmlns="http://www.w3.org/2000/svg">
  <path fill="currentColor" d="M22 12c0 5.5228-4.4772 10-10 10-5.52285 0-10-4.4772-10-10C2 6.47715 6.47715 2 12 2c5.5228 0 10 4.47715 10 10ZM7.005 9c0-.55.445-1 .995-1h8c.55 0 1 .45 1 1v6c0 .55-.45 1-1 1H8c-.55 0-1-.45-1-1l.005-6ZM12 12.5 8.00001 9.99997V15H16V9.99997L12 12.5Zm0-1L8.00001 9.00001H16L12 11.5Z" />
</svg>

<?xml version="1.0" encoding="utf-8"?><!-- Uploaded to: SVG Repo, www.svgrepo.com, Generator: SVG Repo Mixer Tools -->
<svg width="800px" height="800px" viewBox="0 0 24 24" fill="none" xmlns="http://www.w3.org/2000/svg">
<path fill-rule="evenodd" clip-rule="evenodd" d="M22 12C22 17.5228 17.5228 22 12 22C6.47715 22 2 17.5228 2 12C2 6.47715 6.47715 2 12 2C17.5228 2 22 6.47715 22 12ZM7.005 9C7.005 8.45 7.45 8 8 8H16C16.55 8 17 8.45 17 9V15C17 15.55 16.55 16 16 16H8C7.45 16 7 15.55 7 15L7.005 9ZM12 12.5L8.00001 9.99997V15H16V9.99997L12 12.5ZM12 11.5L8.00001 9.00001H16L12 11.5Z" fill="#000000"/>
</svg>
